!! 00000] TT[00
!! NN
!!!OTL: Sharen de gangdao shi jiu lijiao
!!!ARE: Asia, China,ˇQinghai, Osten
!! Ethnic Group: Hui, Han
!! I, 245
!!!SCT: C0063
!!!YEM: Copyright 1995, estate of Helmut Schaffrath.
**kern
*ICvox
*Ivox
*M3/4
*k[b-]
*F:
{4a
=1
4a
4dd
4dd
=2
4cc
8cc
4.a
=3
[2a]
8a]
8a
=4
4a
4dd
4dd
=5
8cc
8a
4a
4r}
=6
{4a
4dd
4dd
=7
4dd
4cc
8a
8g
=8
4cc
2a}
=9
{8g
8a
8g
8f
4d
=10
8d
8f
4c
8A
8c
=11
4d
[2d
=12
2d]}
{8d
8f
=13
2g
4a}
=14
{8a
8a
8f
8g
4a
=15
4a
4r
4cc
=16
8g
8a
8g
8f
8d
8c
=17
2.d}
=18
{4a
4dd
8dd
8dd
=19
4dd
4cc
8a
8g
=20
[2.cc
=21
4cc]
8dd
8ff
8dd
8cc}
=22
{8a
8a
8f
8g
4a
=23
4a
4r
4cc
=24
8g
8a
8g
8f
8d
8c
=25
2.d}
=26
{2.g}
=27
{8a
8a
8f
8g
4a
=28
4a
4r
8cc
8r
=29
8g
8a
8g
8f
8d
8c
=30
2.d
=31
2dd
4r}
==
!!!AGN: Shange, Huar, da yanjing ling. NannÅ siqing
!! sehr typisch, und eine "ling", die nur hier vorkommt.
!!!ONB: ESAC (Essen Associative Code) Database: CHINA
!!!AMT: simple triple
!!!AIN: vox
!!!EED: Helmut Schaffrath
!!!EEV: 1.0
*-
!!!ONB: Tied note syntax fixed by Craig Sapp, 2004/05/03/
